!!!!SEGMENT: pl-kk--kk-i-6--037-005_palestrina-giovanni-pierluigi-da--missa-inviolata-agnus-dei.krn
!!!cenid: 16xx:1020
!!!COM: Palestrina, Giovanni Pierluigi da
!!!COM-rismID: pe1904
!!!CDT: ~1525-1594/02/02
!!!CNT: Italian
!!!OPR: Missa Inviolata
!!!OTL: Agnus Dei
!!!OMV: 005
!!!PDT:
!!!AGN: Sacred; Mass
!!!SMS-siglum: PL-Kk
!!!SMS-shelfmark: Kk.I.6
!!!SMS-shelfwork: 037-005 M
!!!SMS-variant:
!!!SMS-altvar:
!!!NIFC-rismSourceID: 1001136448
!!!NIFC-islandoraID: pl-kk:1634
!!!URL-pdf-islandora: https://repozytorium.nifc.pl/islandora/object/pl-kk%3A1634/datastream/PDF/view
!!!URL-scan: https://polish.musicsources.pl/pl/lokalizacje/galeria/rekopisy/6133 @EN{Scan on Polish Music Sources Website} @PL{Skany w portalu Dziedzictwo Muzyki Polskiej w otwartym dostępie}
!!!ONB-nifc: UWAGA: C (skan 0046-0051, s. 88-99), T (skan 0158-0163, s. 120-131), B (skan 0269-0272, s. 121-126) Części Mszy: 1. Kyrie, 2. Et in terra, 3. Patrem, 4. Sanctus, 5. Agnus Dei
!!!AIN: 1 empty 1 tenor 1 vox
!!!key:
**kern	**text	**kern	**text	**kern	**text
*part3	*part3	*part2	*part2	*part1	*part1
*staff3	*staff3	*staff2	*staff2	*staff1	*staff1
*Iempty	*	*Itenor	*	*Ivox	*
*I"Baſsus.	*	*I"Tenor.	*	*I"Cantus.	*
*I'B	*	*I'T	*	*I'C	*
*clefF4	*	*clefC4	*	*clefC1	*
*k[b-]	*	*k[b-]	*	*k[b-]	*
*F:	*	*F:	*	*F:	*
*M2/1	*	*M2/1	*	*M2/1	*
*met(C|)	*	*met(C|)	*	*met(C|)	*
=1-	=1-	=1-	=1-	=1-	=1-
00r	.	00r	.	1.f/	A-
.	.	.	.	2f/	-gnus
=2-	=2-	=2-	=2-	=2-	=2-
*	*	*	*	*lig	*
.	.	.	.	1f/	De-
.	.	.	.	1g\	.
*	*	*	*	*Xlig	*
=3-	=3-	=3-	=3-	=3-	=3-
1.F\	A-	00r	.	1a\	.
.	.	.	.	2.f/	.
*2\right	*	*	*	*	*
!LO:TX:t=P:problem=kreska pseudotaktowa	!	!	!	!	!
!LO:TX:t=P:problem=all\right&colon; global	!	!	!	!	!
2F\	-Gnus	.	.	.	.
.	.	.	.	4g/	.
=4-	=4-	=4-	=4-	=4-	=4-
*lig	*	*	*	*	*
1F\	De-	.	.	4a\	.
.	.	.	.	4b-\	.
.	.	.	.	1cc\	.
1G\	.	.	.	.	.
*	*	*	*	*2\right	*
!	!	!	!	!LO:TX:t=P:problem=kreska pseudotaktowa	!
.	.	.	.	2b-\	.
*Xlig	*	*	*	*	*
=5-	=5-	=5-	=5-	=5-	=5-
1A\	-i	1.F/	A-	2.cc\	.
.	.	.	.	4b-\	.
*	*ij	*	*	*	*
2.F\	A-	.	.	2.a\	.
.	.	2F/	-gnus	.	.
!LO:TX:t=P:problem=kreska pseudotaktowa	!	!	!	!LO:TX:t=P:problem=kreska pseudotaktowa	!
4G\	.	.	.	4g/	.
=6-	=6-	=6-	=6-	=6-	=6-
*	*	*lig	*	*	*
4A\	.	1F/	De-	2.f/	.
4B-\	.	.	.	.	.
1c\	.	.	.	.	.
.	.	.	.	4e/	.
.	.	1G/	.	1d/	.
2B-\	Gnus	.	.	.	.
!LO:TX:t=P:problem=kreska pseudotaktowa	!	!	!	!	!
*	*	*Xlig	*	*	*
=7-	=7-	=7-	=7-	=7-	=7-
*	*	*	*	*custos:f	*
!	!	!LO:TX:t=P:problem=kreska pseudotaktowa	!	!	!
2.c\	De-	1A\	-i	1c/	-i
!LO:TX:t=P:problem=kreska pseudotaktowa	!	!	!	!	!
4B-\	.	.	.	.	.
!	!	!	!	!LO:LB:g=original	!
*	*	*	*ij	*	*
2.A\	.	2.F/	A-	2r	.
.	.	.	.	1f/	A-
!LO:TX:t=P:problem=kreska pseudotaktowa	!	!	!	!	!
4G\	.	4G/	.	.	.
=8-	=8-	=8-	=8-	=8-	=8-
2.F\	.	4A/	.	.	.
.	.	4B-\	.	.	.
*	*	*2\right	*	*	*
.	.	2.c\	.	2f/	-gnus
4E\	.	.	.	.	.
*	*	*	*	*lig	*
1D\	.	.	.	1f/	De-
.	.	4B-\	-gnus	.	.
.	.	4B-\	De-	.	.
.	.	4A/	.	.	.
=9-	=9-	=9-	=9-	=9-	=9-
*custos:BB-	*	*	*	*	*
!LO:TX:t=P:problem=kreska pseudotaktowa	!	!	!	!	!
1C/	-i	1c\	.	1g\	.
*	*Xij	*	*	*Xlig	*
!LO:LB:g=original	!	!	!	!	!
1r	.	0F/	-i	1a\	-i
*	*	*	*Xij	*	*
=10-	=10-	=10-	=10-	=10-	=10-
!	!	!LO:TX:t=P:problem=kreska pseudotaktowa	!	!	!
1.BB-/	A-	.	.	2.b-\	A-
.	.	.	.	4a\	.
.	.	0r	.	2g/	.
!LO:TX:t=P:problem=kreska pseudotaktowa	!	!	!	!LO:TX:t=P:problem=kreska pseudotaktowa	!
2BB-/	-gnus	.	.	2f/	.
=11-	=11-	=11-	=11-	=11-	=11-
*lig	*	*	*	*	*
1BB-/	De-	.	.	2g/	.
.	.	.	.	1f/	.
1C/	.	1r	.	.	.
.	.	.	.	2e/	.
*Xlig	*	*	*	*	*
=12-	=12-	=12-	=12-	=12-	=12-
!LO:TX:t=P:global:problem=rozdzielacz słów	!	!	!	!LO:TX:t=P:problem=kreska pseudotaktowa	!
1D\,	-i	2r	.	1f/	-gnus
.	.	1F/	A-	.	.
*	*ij	*	*	*	*
2.BB-/	A-	.	.	2.d/	De-
*	*	*custos:F	*	*	*
.	.	2F/	-gnus	.	.
!LO:TX:t=P:problem=kreska pseudotaktowa	!	!	!	!	!
4C/	-gnus	.	.	4e/	.
!	!	!LO:LB:g=original	!	!	!
=13-	=13-	=13-	=13-	=13-	=13-
*	*	*lig	*	*	*
4D\	De-	1F/	De-	4f/	.
4E\	.	.	.	4g/	.
!	!	!	!	!LO:TX:t=P:problem=kreska pseudotaktowa	!
1F\	.	.	.	2a\	.
.	.	1G/	.	1g\	.
2E\	.	.	.	.	.
*	*	*Xlig	*	*	*
=14-	=14-	=14-	=14-	=14-	=14-
!LO:TX:t=P:problem=kreska pseudotaktowa	!	!	!	!	!
1F\	-i	1A\	-i	2.cc\	.
*	*Xij	*	*	*	*
.	.	.	.	4b-\	.
*	*	*	*ij	*	*
1r	.	2.F/	A-	4a\	.
*	*	*	*	*custos:a	*
.	.	.	.	4g/	.
!	!	!	!	!LO:LB:g=original	!
.	.	.	.	2a\	.
!	!	!LO:TX:t=P:problem=kreska pseudotaktowa	!	!	!
.	.	4G/	.	.	.
=15-	=15-	=15-	=15-	=15-	=15-
1F\	qui	4A/	.	2.f/	.
.	.	4B-\	.	.	.
.	.	1c\	.	.	.
.	.	.	.	4e/	.
1G\	tol-	.	.	1d/	-i
.	.	2B-\	-gnus	.	.
=16-	=16-	=16-	=16-	=16-	=16-
2F\	-lis	2A/	De-	00r	.
!LO:TX:t=P:problem=kreska pseudotaktowa	!	!LO:TX:t=P:problem=kreska pseudotaktowa	!	!	!
2E\	pec-	2G/	.	.	.
4D/	-ca-	4F/	.	.	.
4E\	.	4G/	.	.	.
4F\	.	4A/	.	.	.
!LO:TX:t=P:problem=kreska pseudotaktowa	!	!	!	!	!
4D/	.	4F/	.	.	.
=17-	=17-	=17-	=17-	=17LO:LB:g=original-	=17-
4E\	.	1G/	.	.	.
4F\	.	.	.	.	.
2.G\	.	.	.	.	.
.	.	2D/	.	.	.
*custos:F	*	*	*	*	*
4F\	.	.	.	.	.
!LO:LB:g=original	!	!	!	!	!
1F\	.	2F/	.	.	.
=18-	=18-	=18-	=18-	=18-	=18-
!	!	!LO:TX:t=P:problem=kreska pseudotaktowa	!	!	!
.	.	1C/	-i	1g\	qui
*	*	*	*Xij	*	*
!LO:TX:t=P:problem=kreska pseudotaktowa	!	!	!	!	!
2E\	-ta	.	.	.	.
1F\	mun-	0r	.	1a\	tol-
=19-	=19-	=19-	=19-	=19-	=19-
2E\	.	.	.	2g/	-lis
!	!	!	!	!LO:TX:t=P:problem=kreska pseudotaktowa	!
2D/	.	.	.	2f/	pec-
!LO:TX:t=P:problem=kreska pseudotaktowa	!	!	!	!	!
1C/	-di	2r	.	4e/	-ca-
.	.	.	.	4f/	.
.	.	2c\	qui	4g/	.
.	.	.	.	4e/	.
=20-	=20-	=20-	=20-	=20-	=20-
*	*	*custos:c	*	*	*
00r	.	1d\	tol-	4f/	.
.	.	.	.	4g/	.
.	.	.	.	1a\	.
!	!	!LO:PB:g=original	!	!	!
.	.	2c\	-lis	.	.
.	.	2B-\	pec-	2g/	-ta
=21-	=21-	=21-	=21-	=21-	=21-
.	.	4A/	-ca-	2f/	mun-
.	.	4B-\	.	.	.
.	.	4c\	.	4e/	.
.	.	4A/	.	4f/	.
.	.	2B-\	.	4g/	.
.	.	.	.	4f/	.
.	.	2B-\	.	1f/	.
=22-	=22-	=22-	=22-	=22-	=22-
!LO:TX:t=P:problem=kreska pseudotaktowa	!	!	!	!	!
1r	.	2A/	ta	.	.
.	.	2G/	mun-	2e/	.
*	*	*	*	*custos:d	*
!	!	!	!	!LO:TX:t=P:problem=kreska pseudotaktowa	!
2r	.	1F/	-di	1f/	-di
*	*ij	*	*	*	*
2F\	qui	.	.	.	.
!	!	!	!	!LO:LB:g=original	!
=23-	=23-	=23-	=23-	=23-	=23-
!LO:TX:t=P:problem=kreska pseudotaktowa	!	!	!	!	!
1G\	tol-	2r	.	2.d/	pec-
*	*	*	*ij	*	*
.	.	2B-\	qui	.	.
.	.	.	.	4e/	.
2F\	-lis	1c\	tol-	2f/	-ca-
2E\	pec-	.	.	1g\	-ta
=24-	=24-	=24-	=24-	=24-	=24-
4D/	-ca-	2B-\	-lis	.	.
4E\	.	.	.	.	.
4F\	.	2A/	pec-	2f/	.
!LO:TX:t=P:problem=kreska pseudotaktowa	!	!	!	!	!
4D/	.	.	.	.	.
4E\	.	4G/	-ca-	1g\	mun-
4F\	.	4A/	.	.	.
2.G\	.	4B-\	.	.	.
.	.	4G/	.	.	.
=25-	=25-	=25-	=25-	=25-	=25-
!	!	!	!	!LO:TX:t=P:problem=kreska pseudotaktowa	!
.	.	1.A\	.	1c/	-di
4F\	.	.	.	.	.
1F\	-ta	.	.	.	.
!LO:TX:t=P:problem=kreska pseudotaktowa	!	!	!	!LO:N:vis=1	!
.	.	.	.	2r	.
2E\	pec-	2G/	.	2r	.
=26-	=26-	=26-	=26-	=26-	=26-
*	*	*	*	*	*ij
4D/	-ca-	2B-\	.	1f/	qui
4E\	.	.	.	.	.
4F\	.	2A/	ta	.	.
4D/	.	.	.	.	.
*	*	*lig	*	*	*
4E\	.	1G/	mun-	1g\	tol-
4F\	.	.	.	.	.
*custos:D	*	*	*	*	*
2G\	.	.	.	.	.
!LO:LB:g=original	!	!	!	!	!
=27-	=27-	=27-	=27-	=27-	=27-
2D/	ta	1A\	.	2f/	-lis
2C/	pec-	.	.	2e/	pec-
!	!	!LO:LB:g=original	!	!	!
*	*	*Xlig	*	*	*
2D/	-ca-	2F/	-di	4d/	-ca-
.	.	.	.	4e/	.
!LO:TX:t=P:problem=kreska pseudotaktowa	!	!	!	!	!
2BB-/	-ta	2D/	qui	4f/	.
.	.	.	.	4d/	.
=28-	=28-	=28-	=28-	=28-	=28-
*lig	*	*	*	*	*
1C/	mun-	2G/	tol-	4e/	.
.	.	.	.	4f/	.
.	.	2E/	-lis	2.g/	.
1D\	.	2.F/	pec-	.	.
.	.	.	.	4f/	.
.	.	.	.	1f/	.
.	.	4G/	.	.	.
*Xlig	*	*	*	*	*
=29-	=29-	=29-	=29-	=29-	=29-
!LO:TX:t=P:problem=kreska pseudotaktowa	!	!	!	!	!
1C/	-di	4A/	-ca-	.	.
*	*Xij	*	*	*	*
.	.	4B-\	.	.	.
.	.	1c\	-ta	2e/	-ta
*	*	*	*	*lig	*
1r	.	.	.	1d/	mun-
.	.	2B-\	mun-	.	.
=30-	=30-	=30-	=30-	=30-	=30-
*	*	*	*	*custos:f	*
1C/	Mi-	1c\	-di	1e/	.
*	*	*	*Xij	*	*
!	!	!	!	!LO:LB:g=original	!
*	*	*	*	*Xlig	*
2D/	-ſe-	2r	.	0f/	-di
*	*	*	*	*	*Xij
4BB-/	-re-	1d\	mi-	.	.
!LO:TX:t=P:problem=kreska pseudotaktowa	!	!	!	!	!
4C/	.	.	.	.	.
=31-	=31-	=31-	=31-	=31-	=31-
4D/	.	.	.	.	.
4E\	.	.	.	.	.
1F\	.	2c\	-ſe-	.	.
.	.	2d\	-re-	2r	.
!LO:TX:t=P:problem=kreska pseudotaktowa	!	!	!	!	!
2E\	-re	2.c\	-re	2g/	mi-
=32-	=32-	=32-	=32-	=32-	=32-
1D\	no-	.	.	2a\	-ſe-
.	.	4A/	.	.	.
.	.	2B-\	.	4f/	-re-
.	.	.	.	4g/	.
!LO:TX:t=P:problem=kreska pseudotaktowa	!	!	!	!LO:TX:t=P:problem=kreska pseudotaktowa	!
1C/	-bis	1c\	no-	4a\	.
.	.	.	.	4b-\	.
.	.	.	.	1cc\	.
=33-	=33-	=33-	=33-	=33-	=33-
1r	.	2G/	-bis	.	.
*	*	*	*ij	*	*
.	.	2G/	mi-	2b-\	-re
2r	.	2A/	-ſe-	1cc\	no-
1F\	Mi-	4F/	-re-	.	.
.	.	4G/	.	.	.
=34-	=34-	=34-	=34-	=34-	=34-
!	!	!	!	!LO:TX:t=P:problem=kreska pseudotaktowa	!
.	.	4A/	.	1cc\	-bis
.	.	4B-\	.	.	.
!	!	!LO:LB:g=original	!	!	!
!LO:TX:t=P:problem=kreska pseudotaktowa	!	!	!	!	!
2E\	-ſe-	1c\	.	.	.
1D\	-re-	.	.	2r	.
.	.	2B-\	re	1f/	mi-
=35-	=35-	=35-	=35-	=35-	=35-
!LO:TX:t=P:problem=kreska pseudotaktowa	!	!	!	!	!
1C/	-re	1c\	no-	.	.
.	.	.	.	2e/	-ſe-
2r	.	1G/	-bis	1d/	-re-
*	*ij	*	*Xij	*	*
2G\	Mi-	.	.	.	.
=36-	=36-	=36-	=36-	=36-	=36-
2A\	-ſe-	2r	.	1c/	-re
1F\	-re-	2c\	mi-	.	.
.	.	2d\	-ſe-	2r	.
*custos:D	*	*	*	*	*
!LO:TX:t=P:problem=kreska pseudotaktowa	!	!	!	!	!
!	!	!	!	!LO:TX:t=P:problem=kreska pseudotaktowa	!
2E\	-re	1c\	-re-	2g/	mi-
!LO:LB:g=original	!	!	!	!	!
=37-	=37-	=37-	=37-	=37-	=37-
1D\	no-	.	.	2a\	-ſe-
.	.	2B-\	-re	4f/	-re-
.	.	.	.	4g/	.
!LO:TX:t=P:problem=kreska pseudotaktowa	!	!	!	!	!
1C/	-bis	1c\	no-	4a\	.
*	*	*	*	*custos:cc	*
.	.	.	.	4b-\	.
!	!	!	!	!LO:LB:g=original	!
.	.	.	.	2.cc\	.
=38-	=38-	=38-	=38-	=38-	=38-
2r	.	1G/	-bis	.	.
.	.	.	.	4b-\	.
1G\	Mi-	.	.	1b-\	-re
.	.	0r	.	.	.
2D/	-ſe-	.	.	4a\	n[o]-
!	!	!	!	!LO:TX:t=P:problem=kreska pseudotaktowa	!
.	.	.	.	4g/	.
=39-	=39-	=39-	=39-	=39-	=39-
2F\	-re-	.	.	4a\	.
.	.	.	.	4b-\	.
!LO:TX:t=P:problem=kreska pseudotaktowa	!	!	!	!	!
2C/	.	.	.	1cc\	.
1G\	-re	2r	.	.	.
*	*Xij	*	*	*	*
.	.	2G/	Mi-	2b-\	bis
=40-	=40-	=40-	=40-	=40-	=40-
!LO:TX:t=P:problem=kreska pseudotaktowa	!	!	!	!	!
*	*	*	*	*	*ij
1r	.	2A/	-ſe-	2.cc\	mi-
.	.	4F/	-re-	.	.
.	.	4G/	.	4b-\	-ſe-
2r	.	4A/	.	2a\	-re-
.	.	4B-\	.	.	.
!	!	!	!	!LO:TX:t=P:problem=kreska pseudotaktowa	!
2C/	Mi-	2c\	.	2g/	.
=41-	=41-	=41-	=41-	=41-	=41-
2D/	-ſe-	2A/	re	2f/	-re
4BB-/	-re-	1B-\	no-	4d/	.
!LO:TX:t=P:problem=kreska pseudotaktowa	!	!	!	!	!
4C/	.	.	.	4e/	.
4D/	.	.	.	4f/	.
4E\	.	.	.	4g/	.
1F\	.	4A/	.	1a\	.
.	.	4G/	.	.	.
=42-	=42-	=42-	=42-	=42-	=42-
.	.	2F/	.	.	.
*	*	*custos:A	*	*	*
2E\	.	2G/	.	2.g/	.
!	!	!LO:LB:g=original	!	!	!
1D\	-re	2A/	.	.	.
.	.	.	.	4f/	.
.	.	2F/	.	1f/	.
=43-	=43-	=43-	=43-	=43-	=43-
!LO:TX:t=P:problem=kreska pseudotaktowa	!	!	!	!	!
0C/	no-	1G/	-bis	.	.
.	.	.	.	4e/	.
.	.	.	.	4d/	.
*	*	*	*	*custos:f	*
.	.	2r	.	1e/	no-
.	.	2G/	mi-	.	.
!	!	!	!	!LO:LB:g=original	!
=44-	=44-	=44-	=44-	=44-	=44-
1FF/	-bis	2A/	-ſe-	0f/	-bis
.	.	4F/	-re-	.	.
.	.	4G/	.	.	.
*	*ij	*	*	*	*
1F\	Mi-	4A/	.	.	.
.	.	4B-\	.	.	.
.	.	4c\	.	.	.
.	.	4A/	.	.	.
=45-	=45-	=45-	=45-	=45-	=45-
2BB-/	-ſe-	4B-\	.	2r	.
.	.	4c\	.	.	.
1BB-/	-re-	1d\	.	1f/	mi-
2AA/	-re	2c\	-re	2f/	-ſe-
=46-	=46-	=46-	=46-	=46-	=46-
0BB-/	no-	0B-\	no-	2.d/	-re-
.	.	.	.	4e/	.
.	.	.	.	2f/	-re
.	.	.	.	2g/	no-
=47-	=47-	=47-	=47-	=47-	=47-
!	!	!LO:TX:b:t=Canon in \nsub Diateſsaron	!	!	!
!	!	!LO:TX:t=P:problem=fermata below	!	!LO:TX:t=P:problem=fermata below	!
00FF/	-bis	00A\;<	-bis	00a\;	-bis
*	*Xij	*	*	*	*Xij
!LO:PB:g=original	!	!LO:LB:g=original	!	!LO:PB:g=original	!
=48||-	=48||-	=48||-	=48||-	=48||-	=48||-
*clefF4	*	*clefC4	*	*clefC1	*
*M2/1	*	*M2/1	*	*M2/1	*
*met(C|)	*	*met(C|)	*	*met(C|)	*
!LO:TX:b:t=Canon in Sub\nDiateſsaron.	!	!	!	!LO:TX:a:t=Canon in Diateſsaron	!
00r	.	0r	.	0r	.
=49-	=49-	=49-	=49-	=49-	=49-
.	.	1B-\	A-	0f/	A-
.	.	2c\	-gnus	.	.
.	.	1d\	De-	.	.
=50-	=50-	=50-	=50-	=50-	=50-
!LO:TX:t=P:problem=kreska pseudotaktowa	!	!	!	!	!
00r	.	.	.	0f/	-gnus
.	.	4c\	.	.	.
.	.	4B-\	.	.	.
.	.	2A/	.	.	.
.	.	1B-\	.	.	.
=51-	=51-	=51-	=51-	=51-	=51-
*	*	*	*	*lig	*
.	.	.	.	1f/	De-
.	.	2A/	.	.	.
.	.	1G/	.	1g\	.
*	*	*	*	*Xlig	*
=52-	=52-	=52-	=52-	=52-	=52-
!	!	!	!	!LO:TX:t=P:):problem=fermata below lub emotikonka 	!
1F\	A-	2F/	-i	1a\;	-i
*	*	*	*ij	*	*
.	.	2F/	A-	.	.
2G\	-Gnus	2E/	-gnus	00r	.
1A\	De-	1F/	De-	.	.
=53-	=53-	=53-	=53-	=53-	=53-
4G\	.	4E/	.	.	.
!LO:TX:t=P:problem=kreska pseudotaktowa	!	!	!	!	!
4F\	.	4D/	.	.	.
2E\	.	2C/	.	.	.
1F\	.	4F/	.	.	.
.	.	4G/	.	.	.
=54-	=54-	=54-	=54-	=54-	=54-
.	.	4A/	.	.	.
.	.	4B-\	.	.	.
!LO:TX:t=P:problem=kreska pseudotaktowa	!	!	!	!	!
2E\	.	2.c\	.	.	.
1D\	.	.	.	1f/	qui
.	.	4B-\	.	.	.
!	!	!LO:LB:g=original	!	!	!
.	.	4B-\	.	.	.
.	.	4A/	.	.	.
=55-	=55-	=55-	=55-	=55-	=55-
!LO:TX:t=P:problem=kreska pseudotaktowa	!	!LO:TX:t=P:global:problem=rozdzielacz słów	!	!	!
1C/	-i	1c\,	-i	1g\	tol-
*	*	*	*Xij	*	*
0r	.	1F/	qui	1a\	-lis
=56-	=56-	=56-	=56-	=56-	=56-
.	.	1G/	tol-	1b-\	pec-
!LO:TX:t=P:problem=kreska pseudotaktowa	!	!	!	!	!
1G\	qui	1A\	-lis	1a\	-ca-
=57-	=57-	=57-	=57-	=57-	=57-
*custos:A	*	*	*	*	*
1G\	tol-	1B-\	pec-	2g/	-ta
.	.	.	.	2.b-\	mun-
!LO:LB:g=original	!	!	!	!	!
1A\	-lis	2c\	-ca-	.	.
.	.	.	.	4a\	.
.	.	2A/	-ta	1a\	.
=58-	=58-	=58-	=58-	=58-	=58-
1B-\	pec-	2r	.	.	.
.	.	1d\	mun-	2g/	.
*	*	*	*	*custos:f	*
2.A\	-ca-	.	.	1a\	-di
.	.	2c\	.	.	.
!LO:TX:t=P:problem=kreska pseudotaktowa	!	!	!	!	!
4G\	.	.	.	.	.
!	!	!	!	!LO:LB:g=original	!
=59-	=59-	=59-	=59-	=59-	=59-
2F\	.	1d\	-di	0r	.
2D/	-ta	.	.	.	.
1A\	mun-	2r	.	.	.
.	.	1A\	qui	.	.
=60-	=60-	=60-	=60-	=60-	=60-
!LO:TX:t=P:problem=kreska pseudotaktowa	!	!	!	!	!
1D\	-di	.	.	1f/	qui
.	.	1d\	tol-	.	.
0r	.	.	.	0g\	tol-
.	.	1c\	.	.	.
=61-	=61-	=61-	=61-	=61-	=61-
.	.	2B-\	.	.	.
!LO:TX:t=P:problem=kreska pseudotaktowa	!	!	!	!	!
1r	.	1A\	-lis	1a\	-lis
=62-	=62-	=62-	=62-	=62-	=62-
1G\	pec-	2r	.	1b-\	pec-
.	.	2G/	pec-	.	.
1.F\	-ca-	2.A/	-ca-	1.a\	-ca-
.	.	4B-\	.	.	.
=63-	=63-	=63-	=63-	=63-	=63-
.	.	2c\	.	.	.
!	!	!LO:LB:g=original	!	!	!
!LO:TX:t=P:problem=kreska pseudotaktowa	!	!	!	!	!
2E\	.	2G/	-ta	2g/	-ta
2.D/	-ta	4B-\	mun-	2.f/	mun-
.	.	4A/	.	.	.
.	.	2.A/	.	.	.
4C/	.	.	.	4e/	.
=64-	=64-	=64-	=64-	=64-	=64-
1BB-/	mun-	.	.	1d/	.
.	.	4G/	.	.	.
.	.	4G/	.	.	.
.	.	4F/	.	.	.
!LO:TX:t=P:problem=kreska pseudotaktowa	!	!	!	!	!
1AA/	-di	1A\	.	1c/	-di
=65-	=65-	=65-	=65-	=65-	=65-
*	*ij	*	*	*	*
1D\	pec-	1F/	.	00r	.
1.C/	-ca-	1G/	-di	.	.
=66-	=66-	=66-	=66-	=66-	=66-
*	*	*	*ij	*	*
.	.	2C/	pec-	.	.
2BB-/	.	4D/	-ca-	.	.
.	.	4E/	.	.	.
2.AA/	-ta	4F/	.	.	.
.	.	4G/	.	.	.
.	.	2.A/	.	.	.
*custos:FF	*	*	*	*	*
4GG/	.	.	.	.	.
!LO:LB:g=original	!	!	!	!	!
=67-	=67-	=67-	=67-	=67-	=67-
*	*	*	*	*	*ij
1FF/	mun-	.	.	1f/	qui
.	.	4G/	.	.	.
.	.	1F/	-ta	.	.
!LO:TX:t=P:problem=kreska pseudotaktowa	!	!	!	!	!
1C/	-di	.	.	1g\	tol-
*	*Xij	*	*	*	*
.	.	2E/	mun-	.	.
=68-	=68-	=68-	=68-	=68-	=68-
2r	.	1F/	-di	1a\	-lis
*	*	*	*Xij	*	*
2F\	qui	.	.	.	.
1G\	tol-	1r	.	1b-\	pec-
=69-	=69-	=69-	=69-	=69-	=69-
!LO:TX:t=P:problem=kreska pseudotaktowa	!	!	!	!	!
1A\	-lis	2r	.	1a\	-ca-
.	.	2F/	qui	.	.
0r	.	1G/	tol-	2g/	-ta
*	*	*	*	*lig	*
.	.	.	.	1b-\	mun-
=70-	=70-	=70-	=70-	=70-	=70-
.	.	1A\	-lis	.	.
.	.	.	.	1a\	.
!LO:TX:t=P:problem=kreska pseudotaktowa	!	!	!	!	!
1r	.	1B-\	pec-	.	.
*	*	*	*	*Xlig	*
*	*	*	*	*custos:a	*
.	.	.	.	2g/	.
!	!	!LO:LB:g=original	!	!LO:LB:g=original	!
=71-	=71-	=71-	=71-	=71-	=71-
1AA/	pec-	1A\	-ca-	0a\	-di
*	*	*	*	*	*Xij
1D\	-ca-	1F/	-ta	.	.
=72-	=72-	=72-	=72-	=72-	=72-
1C/	-ta	2.G/	mun-	00r	.
.	.	4A/	.	.	.
2.D/	mun-	2B-\	.	.	.
*	*	*lig	*	*	*
.	.	1A\	.	.	.
!LO:TX:t=P:problem=kreska pseudotaktowa	!	!	!	!	!
4E\	.	.	.	.	.
=73-	=73-	=73-	=73-	=73-	=73-
2F\	.	.	.	.	.
2C/	.	1G/	.	.	.
1D\	.	.	.	.	.
*	*	*Xlig	*	*	*
.	.	2F/	.	.	.
=74-	=74-	=74-	=74-	=74-	=74-
!LO:TX:t=P:problem=kreska pseudotaktowa	!	!	!	!	!
1C/	-di	1G/	-di	1g\	do-
1r	.	1A\	do-	1e/	-na
=75-	=75-	=75-	=75-	=75-	=75-
1D\	do-	1F/	-na	1f/	no-
!LO:TX:t=P:problem=kreska pseudotaktowa	!	!	!	!	!
1BB-/	-na	1G/	no-	1d/	-bis
=76-	=76-	=76-	=76-	=76-	=76-
1C/	no-	1.E/	-bis	0r	.
*custos:D	*	*	*	*	*
1AA/	-bis	.	.	.	.
.	.	2.F/	pa-	.	.
!LO:LB:g=original	!	!	!	!	!
=77-	=77-	=77-	=77-	=77-	=77-
1D\	pa-	.	.	1r	.
.	.	4E/	.	.	.
.	.	4D/	.	.	.
.	.	4C/	.	.	.
!LO:TX:t=P:problem=kreska pseudotaktowa	!	!	!	!	!
*	*	*	*	*	*ij
1GG/	-cem	1D/	.	1g\	do-
=78-	=78-	=78-	=78-	=78-	=78-
1r	.	1C/	-cem	1e/	-na
!	!	!LO:PB:g=original	!	!	!
1F\	do-	0r	.	1f/	no-
=79-	=79-	=79-	=79-	=79-	=79-
!LO:TX:t=P:problem=kreska pseudotaktowa	!	!	!	!	!
1G\	-na	.	.	2d/	-bis
*	*	*	*	*	*Xij
.	.	.	.	2.g/	pa-
1C/	no-	1r	.	.	.
.	.	.	.	4f/	.
.	.	.	.	4e/	.
.	.	.	.	4d/	.
=80-	=80-	=80-	=80-	=80-	=80-
1AA/	-bis	1A\	do-	2e/	.
.	.	.	.	2.f/	.
!LO:TX:t=P:problem=kreska pseudotaktowa	!	!	!	!	!
1D\	pa-	1F/	-na	.	.
.	.	.	.	4e/	.
.	.	.	.	4d/	.
.	.	.	.	4c/	.
=81-	=81-	=81-	=81-	=81-	=81-
1GG/,	-cem	2D/	no-	1d/	.
.	.	2G/	-bis	.	.
*	*ij	*lig	*	*	*
1C/	do-	1E/	pa-	1c/	-cem
=82-	=82-	=82-	=82-	=82-	=82-
2FF/	-na	1F/	.	1r	.
1BB-/	no-	.	.	.	.
*	*	*Xlig	*	*	*
*	*	*	*	*custos:g	*
.	.	0G/	.	1b-\	do-
1GG/	-bis	.	.	.	.
!	!	!	!	!LO:LB:g=original	!
=83-	=83-	=83-	=83-	=83-	=83-
.	.	.	.	1g\	-na
!LO:TX:t=P:problem=kreska pseudotaktowa	!	!	!	!	!
2C/	pa-	.	.	.	.
2FF,/	-cem	1F/	-cem	1a\	no-
*	*Xij	*	*	*	*
1F\	Do-	.	.	.	.
=84-	=84-	=84-	=84-	=84-	=84-
.	.	2r	.	1f/	-bis
!LO:TX:t=P:problem=kreska pseudotaktowa	!	!	!	!	!
*	*	*	*ij	*	*
2D/	-na	1d\	do-	.	.
1G\	no-	.	.	2.b-\	pa-
.	.	2B-\	-na	.	.
.	.	.	.	4a\	.
=85-	=85-	=85-	=85-	=85-	=85-
1C/	-bis	1c\	no-	4g/	.
.	.	.	.	4f/	.
.	.	.	.	2g/	.
*custos:BB-	*	*	*	*	*
1F\	pa-	1A\	-bis	2.a\	.
.	.	.	.	4g/	.
!LO:LB:g=original	!	!	!	!	!
=86-	=86-	=86-	=86-	=86-	=86-
!LO:TX:t=P:problem=kreska pseudotaktowa	!	!	!	!	!
1BB-/,	-cem	2.B-\	pa-	4f/	.
.	.	.	.	4e/	.
.	.	.	.	1f/	.
.	.	4A/	.	.	.
1C/	.	1G/	.	.	.
.	.	.	.	2e/	.
=87-	=87-	=87-	=87-	=87-	=87-
!	!	!	!	!LO:TX:t=P:problem=fermata below	!
1FF/	.	2F,/	-cem	2f;</	-cem
*	*	*	*Xij	*	*
.	.	1A\	do-	1cc\	do-
1F\	.	.	.	.	.
.	.	1F/	-na	2a\	-na
=88-	=88-	=88-	=88-	=88-	=88-
!LO:TX:t=P:problem=kreska pseudotaktowa	!	!	!	!	!
1BB-/	Do-	.	.	1b-\	no-
.	.	1G/	no-	.	.
1C/	-na	.	.	1g\	-bis
!	!	!LO:LB:g=original	!	!	!
.	.	1E/	-bis	.	.
=89-	=89-	=89-	=89-	=89-	=89-
1AA/	No-	.	.	2.a\	pa-
.	.	1A\	pa-	.	.
.	.	.	.	4g/	.
!LO:TX:t=P:problem=kreska pseudotaktowa	!	!	!	!	!
1D\	-bis	.	.	4f/	.
.	.	.	.	4e/	.
.	.	4G/	.	1f/	.
.	.	4F/	.	.	.
=90-	=90-	=90-	=90-	=90-	=90-
0C/	pa-	0G/	.	.	.
.	.	.	.	4e/	.
.	.	.	.	4d/	.
.	.	.	.	1e/	.
=91-	=91-	=91-	=91-	=91-	=91-
!LO:TX:b:t=1752\nA.D. 1689.\n30 May	!	!	!	!	!
0FF/	-cem.	0F/;;	-cem.	0f/;;	-cem
==	==	==	==	==	==
*-	*-	*-	*-	*-	*-
!!!system-decoration: [(s1,s2,s3)]
!!!RDF**kern: > = above
!!!RDF**kern: < = below
!!!EED: Leszek Kubiak
!!!EEV: 2021-03-23
!!!ENC: Andrzej Kubiczek
!!!END: 2021-03-09
!!!YEC: Copyright 2022 Narodowy Instytut Fryderyka Chopina (https://polishscores.org)
!!!YEM: Licence CC BY 4.0 (https://creativecommons.org/licenses/by/4.0)
